web/images/products-nav/bullet-train-logo-mark.svg

<?xml version="1.0" encoding="UTF-8"?>
<svg width="450px" height="210px" viewBox="0 0 450 210" version="1.1" xmlns="http://www.w3.org/2000/svg" xmlns:xlink="http://www.w3.org/1999/xlink">
    <!-- Generator: Sketch 52.6 (67491) - http://www.bohemiancoding.com/sketch -->
    <title>bullet-train-1</title>
    <desc>Created with Sketch.</desc>
    <defs>
        <linearGradient x1="100%" y1="50%" x2="0%" y2="50%" id="linearGradient-1">
            <stop stop-color="#2CA69D" offset="0%"></stop>
            <stop stop-color="#2BE3D6" offset="100%"></stop>
        </linearGradient>
    </defs>
    <g id="Page-1" stroke="none" stroke-width="1" fill="none" fill-rule="evenodd">
        <g id="Icon" transform="translate(-31.000000, -151.000000)" stroke-width="16.224">
            <g id="bullet-train-1" transform="translate(40.000000, 160.000000)">
                <path d="M407.008905,81.9038553 C399.916784,68.8998091 370.927099,68.8998091 320.039851,81.9038553 C316.901831,82.7057644 303.063501,55.6994105 304.49698,52.0030399 C308.646098,41.3041212 369.343011,46.0787361 381.658661,49.1089702 C391.98576,51.649926 379.106915,44.2587283 343.022127,26.9353769 L343.022127,26.9353762 C336.197884,23.6592377 330.840304,17.9564038 327.996172,10.9411141 C321.877325,-4.15152815 298.054078,-3.62959167 256.526429,12.5069235 C208.490428,31.1724071 126.822541,62.4399021 11.5227674,106.309409 L11.5227677,106.30941 C7.38843093,107.882451 4.31869895,111.42428 3.34904437,115.740177 L0.625594745,127.862153 C0.134558321,130.047738 1.50826161,132.217569 3.69384692,132.708605 C4.34513389,132.85493 5.02246802,132.83825 5.66576292,132.660044 L86.5556814,110.251863 C88.7144469,109.653841 90.9492654,110.919073 91.5472881,113.077838 C91.6449782,113.430484 91.6944973,113.794728 91.6944973,114.160654 L91.6944973,130.362953 C91.6944973,132.756257 90.0208746,134.823606 87.6800103,135.321863 L2.42106437,153.469384 C0.77782602,153.819151 -0.270740289,155.4348 0.079025967,157.078038 C0.0995422782,157.174426 0.124730262,157.26976 0.154500808,157.363703 L7.99109047,182.092527 C9.86049377,187.99154 15.3356878,191.99999 21.5238236,191.99999 L371.913258,191.999995 C404.186783,191.999995 430.700544,166.513877 431.975653,134.265552 C431.975653,134.265552 431.975653,134.265552 431.975653,134.265552 C432.511914,120.703143 424.189665,103.249244 407.008905,81.9038553 Z" id="Path-8" stroke="url(#linearGradient-1)"></path>
                <path d="M371.297424,167.874346 C397.201541,159.263509 407.560577,143.849896 402.374531,121.633508" id="Path-9" stroke="url(#linearGradient-1)" stroke-linecap="round"></path>
                <path d="M121.977219,125.426362 L237.770313,100.38089 C244.688646,98.8844881 250.835071,94.9428208 255.081194,89.2795185 C261.234262,81.0728133 264.223526,74.2774089 264.048984,68.8933053 C263.830768,62.1619786 258.669036,57.6886476 248.563787,55.4733124 L248.563786,55.4733178 C247.085023,55.1491341 245.545049,55.2452218 244.118054,55.7507121 L133.942378,94.7786866 C126.082816,97.562811 120.472852,104.551204 119.454136,112.826848 L118.31491,122.081458 C118.109648,123.748922 119.294997,125.267066 120.962462,125.472328 C121.3009,125.513989 121.643934,125.49845 121.977219,125.426362 Z" id="Path-10" stroke="url(#linearGradient-1)"></path>
                <path d="M330.82904,73.382199 L353.086651,51.2670157" id="Path-7" stroke="#2CB6AC" stroke-linecap="round"></path>
                <path d="M363.196686,72.5439927 L384.610692,51.2670157" id="Path-7-Copy" stroke="#2BADA3" stroke-linecap="round"></path>
            </g>
        </g>
    </g>
</svg>

<svg height="210" viewBox="0 0 450 210" width="450" xmlns="http://www.w3.org/2000/svg" xmlns:xlink="http://www.w3.org/1999/xlink"><linearGradient id="a" x1="100%" x2="0%" y1="50%" y2="50%"><stop offset="0" stop-color="#2ca69d"/><stop offset="1" stop-color="#2be3d6"/></linearGradient><g fill="none" fill-rule="evenodd" stroke-width="16.224" transform="translate(9 9)"><g stroke="url(#a)"><path d="m407.008905 81.9038553c-7.092121-13.0040462-36.081806-13.0040462-86.969054 0-3.13802.8019091-16.97635-26.2044448-15.542871-29.9008154 4.149118-10.6989187 64.846031-5.9243038 77.161681-2.8940697 10.327099 2.5409558-2.551746-4.8502419-38.636534-22.1735933v-.0000007c-6.824243-3.2761385-12.181823-8.9789724-15.025955-15.9942621-6.118847-15.09264225-29.942094-14.57070577-71.469743 1.5658094-48.036001 18.6654836-129.703888 49.9329786-245.0036616 93.8024855l.0000003.000001c-4.13433677 1.573041-7.20406875 5.11487-8.17372333 9.430767l-2.72344962 12.121976c-.49103643 2.185585.88266686 4.355416 3.06825217 4.846452.65128697.146325 1.3286211.129645 1.971916-.048561l80.88991848-22.408181c2.1587655-.598022 4.393584.66721 4.9916067 2.825975.0976901.352646.1472092.71689.1472092 1.082816v16.202299c0 2.393304-1.6736227 4.460653-4.014487 4.95891l-85.25894593 18.147521c-1.64323835.349767-2.69180466 1.965416-2.3420384 3.608654.02051631.096388.04570429.191722.07547484.285665l7.83658966 24.728824c1.8694033 5.899013 7.34459733 9.907463 13.53273313 9.907463l350.3894344.000005c32.273525 0 58.787286-25.486118 60.062395-57.734443.536261-13.562409-7.785988-31.016308-24.966748-52.3616967z"/><path d="m371.297424 167.874346c25.904117-8.610837 36.263153-24.02445 31.077107-46.240838" stroke-linecap="round"/><path d="m121.977219 125.426362 115.793094-25.045472c6.918333-1.4964019 13.064758-5.4380692 17.310881-11.1013715 6.153068-8.2067052 9.142332-15.0021096 8.96779-20.3862132-.218216-6.7313267-5.379948-11.2046577-15.485197-13.4199929l-.000001.0000054c-1.478763-.3241837-3.018737-.228096-4.445732.2773943l-110.175676 39.0279745c-7.859562 2.7841244-13.469526 9.7725174-14.488242 18.0481614l-1.139226 9.25461c-.205262 1.667464.980087 3.185608 2.647552 3.39087.338438.041661.681472.026122 1.014757-.045966z"/></g><path d="m330.82904 73.382199 22.257611-22.1151833" stroke="#2cb6ac" stroke-linecap="round"/><path d="m363.196686 72.5439927 21.414006-21.276977" stroke="#2bada3" stroke-linecap="round"/></g></svg>
